packages/dnb-eufemia/assets/icons/cat.svg

<svg width="16" height="16" viewBox="0 0 16 16" fill="none" xmlns="http://www.w3.org/2000/svg">
<path d="M2.71796 10.0358C2.5088 9.48661 2.41594 8.95263 2.42108 8.44294M10.8 13.1901C9.11547 14.3588 6.88453 14.3588 5.2 13.1901M13.282 10.0358C13.4912 9.48661 13.5841 8.95263 13.5789 8.44294M12.2 9.85393L15 10.3243M11.7333 11.2649L14.0667 12.6759M3.8 9.85393L1 10.3243M4.26667 11.2649L1.93333 12.6759M2.42108 8.44294L2.4 1.93419C2.40017 1.18043 3.31531 0.715263 3.91636 1.19984L7.15345 3.80038M2.42108 8.44294C2.44543 6.02576 4.67372 4.15501 7.15345 3.80038M13.5789 8.44294L13.6 1.93419C13.5998 1.16333 12.6809 0.718314 12.0836 1.19984L8.80649 3.80038M13.5789 8.44294C13.5546 6.02576 11.2927 4.15501 8.80649 3.80038M7.15345 3.80038C7.44773 3.75829 7.70289 3.73956 8 3.73977C8.26976 3.74168 8.53942 3.76228 8.80649 3.80038M9.4 10.5594C9.4 10.1675 8.77342 9.85393 8 9.85393C7.22658 9.85393 6.6 10.1675 6.6 10.5594C6.77769 11.3081 7.38885 11.6825 8 11.6825C8.61115 11.6825 9.22231 11.3081 9.4 10.5594Z" stroke="black" stroke-width="1.5" stroke-linecap="round" stroke-linejoin="round"/>
<path d="M6.66659 7.99992C6.66659 8.36811 6.36811 8.66659 5.99992 8.66659C5.63173 8.66659 5.33325 8.36811 5.33325 7.99992C5.33325 7.63173 5.63173 7.33325 5.99992 7.33325C6.36811 7.33325 6.66659 7.63173 6.66659 7.99992Z" fill="black"/>
<path d="M10.6666 7.99992C10.6666 8.36811 10.3681 8.66659 9.99992 8.66659C9.63173 8.66659 9.33325 8.36811 9.33325 7.99992C9.33325 7.63173 9.63173 7.33325 9.99992 7.33325C10.3681 7.33325 10.6666 7.63173 10.6666 7.99992Z" fill="black"/>
</svg>

<svg width="16" height="16" viewBox="0 0 16 16" fill="none" xmlns="http://www.w3.org/2000/svg"><path d="M2.718 10.036a4.334 4.334 0 0 1-.297-1.593M10.8 13.19a4.91 4.91 0 0 1-5.6 0m8.082-3.154c.21-.55.302-1.083.297-1.593M8 10.863c-.773 0-1.4-.695-1.4-.304.178.75.789.303 1.4.303Zm0 0c.773 0 1.4-.695 1.4-.304-.178.75-.789.303-1.4.303Zm4.2-1.01 2.8.471m-3.267.94 2.334 1.412M3.8 9.854l-2.8.47m3.267.94-2.334 1.412m.488-4.233L2.4 1.934c0-.754.915-1.219 1.516-.734l3.237 2.6M2.421 8.443C2.445 6.026 4.674 4.155 7.153 3.8m6.426 4.643.021-6.509c0-.77-.92-1.216-1.516-.734L8.806 3.8m4.773 4.643c-.024-2.417-2.286-4.288-4.773-4.643m-1.653 0a5.672 5.672 0 0 1 1.653 0M5.986 8h.022m3.977 0h.023" stroke="#000" stroke-width="1.5" stroke-linecap="round" stroke-linejoin="round"/></svg>
